X:1
T:Let It Snow!
C:Lyric by Sammy Cahn, Music by Jule Styne
M:4/4
L:1/4
K:D
P:Moderately
V:1
|A/2A/2|:!segno!"D"a/2a/2 g "A7"f e|"D"d A2 A3/4A/4
w:Oh the weath-er out-side is fright-ful, but the
w:__does-n't show signs of stop-ping, and I
w:__fire_ is slow-ly dy-ing, and my
|"D/F#"e3/2 d/2 "Fdim"e3/2 d/2|"A7/E"c "A7"A2 "B7"B
w:fire is so de-light-ful, and
w:brought some corn for pop-ping. The
w:dear, we're still good-by-ing. But~as
|"Em"b/2b/2 a "B7"g "B7"f|"Em"e3 "Fdim"c'3/4b/4
w:since we've no place to go, let it
w:lights are turned 'way down low; let it
w:long as you love me so, let it
|"A7/E"a a3/4g/4 "A7"f "^To Coda"f3/4e/4|1"D"d3 A:|2"D"d3 c3/4d/4||
w:snow! let it snow! let it snow! It ||
w:snow! let it snow! let it ||snow! When we
w:snow! let it snow! let it ||
|"A"e3/4f/4 e c a|e3 "A#dim7"c3/4e/4
w:fin-al-ly kiss good-night how I'll
|"Bm7"d d3/4c/4 "E7"B A3/4B/4|"A"c3 c3/4d/4
w:hate go-ing out in the storm! But if
|e f3/4e/4 c a|"A"e- "G#7"e- "G7"e- "F#7"e
w:you'll real-ly hold me tight___
|"B7"a3/4^g/4 f "E7"g e|"A7"a3 "^D.S. al Coda"A||!coda!"D"d3 z||
w:all the way home I'll~be warm. The snow!
V:2
|A/2A/2|:f/2f/2 e d c|A F2 F
|z A2 ^G|G G2 B
|g/2g/2 f ^d2|G3 d
|c c3/4B/4 A A3/4G/4|1F3 A:|2F3 c3/4d/4||
|c3/4d/4 c A f|c3 ^A
|c B3/4A/4 ^G E|A3 A3/4B/4
|c d3/4c/4 A f|c =c B ^A
|A2 B2|c d e g||F3 z||
